packages/kaspersky-hexa-ui-icons/src/iconsSVGs/40/Error.svg

<svg xmlns="http://www.w3.org/2000/svg" width="40" height="40" fill="none" viewBox="0 0 40 40"><path fill="#000" fill-rule="evenodd" d="M20 38c9.9411 0 18-8.0589 18-18S29.9411 2 20 2 2 10.0589 2 20s8.0589 18 18 18m-4.6958-21.2814c-.3905-.3905-.3905-1.0237 0-1.4142.3906-.3906 1.0237-.3906 1.4143 0l3.2837 3.2837 3.2838-3.2837c.3905-.3906 1.0237-.3906 1.4142 0s.3905 1.0237 0 1.4142l-3.2838 3.2838 3.2838 3.2837c.3905.3905.3905 1.0237 0 1.4142s-1.0237.3905-1.4143 0l-3.2837-3.2837-3.2837 3.2837c-.3905.3905-1.0237.3905-1.4142 0s-.3905-1.0237 0-1.4142l3.2837-3.2837z"/></svg>

<svg width="40" height="40" viewBox="0 0 40 40" fill="none" xmlns="http://www.w3.org/2000/svg">
<path fill-rule="evenodd" clip-rule="evenodd" d="M20 38C29.9411 38 38 29.9411 38 20C38 10.0589 29.9411 2 20 2C10.0589 2 2 10.0589 2 20C2 29.9411 10.0589 38 20 38ZM15.3042 16.7186C14.9137 16.3281 14.9137 15.6949 15.3042 15.3044C15.6948 14.9138 16.3279 14.9138 16.7185 15.3044L20.0022 18.5881L23.286 15.3044C23.6765 14.9138 24.3097 14.9138 24.7002 15.3044C25.0907 15.6949 25.0907 16.3281 24.7002 16.7186L21.4164 20.0024L24.7002 23.2861C25.0907 23.6766 25.0907 24.3098 24.7002 24.7003C24.3096 25.0908 23.6765 25.0908 23.2859 24.7003L20.0022 21.4166L16.7185 24.7003C16.328 25.0908 15.6948 25.0908 15.3043 24.7003C14.9138 24.3098 14.9138 23.6766 15.3043 23.2861L18.588 20.0024L15.3042 16.7186Z" fill="black"/>
</svg>
